X:1
T:La Fiancée du soldat
T:La Fiancée du soldat
T:Cécile Chaminade
T:Charles Jean Grandmougin
T:OpenScore (CC0)
T:OpenScore (CC0)
T:OpenScore (CC0)
T:OpenScore (CC0)
T:OpenScore (CC0)
T:OpenScore (CC0)
T:OpenScore (CC0)
T:OpenScore (CC0)
C:Cécile Chaminade
Z:Charles Jean Grandmougin
Z:OpenScore (CC0)
%%score ( 1 2 ) { ( 3 5 ) | ( 4 6 ) }
L:1/8
Q:1/4=102
M:12/8
K:F
V:1 treble nm="Voice"
V:2 treble 
V:3 treble nm="Piano"
V:5 treble 
V:4 bass 
V:6 bass 
V:1
"^Moderato." z6 z2 z!mf! D"^semplice." F G | A2 A G2 F A2 A D F G | A2 A G2 F A3!<(! F A B!<)! | %3
w: Mon bien- ai-|mé sert sa pa- tri- e, Il est par-|ti tam- bours bat- tants, Me di- sant:|
w: Off to the|wars my sweet- heart's wen- ded, To beat of|drum he march'd a- way, Say- ing, "Dear|
!f! c2 c B2 B G2 G A A A | F2 F G2 G E3!p! D ^F A | G2 G E2 E !fermata!D2 z!mf! D =F G | %6
w: "Jean- ne je t'en pri- e, Jean- ne ne|pleu- re plus, at- tends Que j'aie un|jour fi- ni mon  temps!" Il est par-|
w: Jean- ne, soon 'tis end- ed, Jean- ne, now|weep no more, I pray, Wait till we|meet, O hap- py day!" To the great|
 A2 A G2 F A2 A!pp! D F G | A2 A G2 F A3!<(! F A B!<)! | c2 c B2 B G2 G A A A | %9
w: ti pour la grand vil- le, Il m'é- cri-|vit fi- dè- le- ment, Et moi, bien|tris- te mais tran- quil- le, J'at- ten- dais|
w: cit- y he de- par- ted, Faith- ful- ly|he has writ- ten me, And I, tho'|lone and woe- ful heart- ed, Wait for the|
 F2 F G2 G E3!p! D ^F A | G2 G E2 E !fermata!D3 z!f! A A ||[K:D] d3- d2 A (FBd) c2 A | %12
w: tou- jours le mo- ment Où me re-|vien- drait mon a- mant! Lon lon|la, * je chan- * * te ma|
w: mo- ment tran- quil- ly When I a-|gain my love shall see! Tra la|la! * I sing * * of my|
{/c} (B3 A3-) A z!mp! F F B F | A6- A3 E2 G | (F3 E3) z2 z A2 A | %15
w: pei- ne * Aux for- êts, aux|champs, * à la|plai- ne, Mais les|
w: sor- row * To for- est and|field * and the|plain, * While the|
[Q:1/4=110]"^Animato." A"^cresc." G F A6 z z B | B A ^G B6!f! c2 c | c6 !breath!c3 (2:3:2A A | %18
w: mer- les joy- eux Ba-|bil- lent au bord de l'eau|clai- re, Lon lon|
w: black- birds so gay Are|war- bling a- way In re-|frain. * Tra la|
"^dim." !fermata!d3 d2[Q:1/4=102] A (FBd) c2 A |{/c} B3 A3- A2 z!p! D E F | %20
w: lè- re, Je chan- * * te ma|pei- ne * Et le so-|
w: la, * I wait * * for the|mor- row, * And the bright|
!<(! A6- A3!<)!!<(! G A B!<)! |!f! d12- | d6- d2 z D =F G ||[K:F] A2 A G2 F A2 A D F G | %24
w: leil * rit dans les|cieux!|* * Ah! je mau-|dis tout au vil- la- ge, Les fe- nai-|
w: sun * shin- eth a-|main!|* * Wear- y the|vil- lage toil doth make me, Rak- ing of|
 A2 A G2 F A3!<(! F A B!<)! |!f! c2 c B2 B G2 G A A A |"^dim." F2 F G2 G E3!p! D ^F A | %27
w: sons et les la- bours, Je vou- drais|ê- tre sur la pla- ge, D'où j'at- tends|en vain tous les jours, Des * nou-|
w: hay and har- vest- home, Down to the|shore I'd fain be- take me, Whith- er all|day my thoughts do roam, Hop- ing for|
 G G G E2 E !fermata!D2 z D F G | A2 A G2 F A2 A!pp! D F G | A2 A G2 F A3!<(! F A B!<)! | %30
w: vel- les de mes a- mours. Hé- las! s'il|a per- du la vi- e, Tais- toi pour|ja- mais, ô ma voix! Car je veux|
w: news of my love to come. Ah, if far|dis- tant now he's dy- ing, Ev- er be|si- lent, voice of mine! For in my|
 c2 c B2 B G2 G A A A | F2 F G2 G E3 D ^F A | G2 G E2 E !fermata!D2 z!pp! A2 A || %33
w: être en- se- ve- li- e, Là- bas, au|bord du pe- tit bois Où je l'em-|bras- sai tant de fois! Lon lon|
w: grave I'd soon be ly- ing, Yon- der, be-|neath the trail- ing vine, Where I have|kiss'd him man- y‿a  time! Tra la|
[K:D]!p! d3- d2 A (FBd) c2 A |{/c} (B3 A3-) A z F F B F | A6- A3 E2 G | (F3 E3) z2 z A2 A | %37
w: la! * je chan- * * te ma|pei- ne * Aux for- êts, aux|champs, * à la|plai- ne, Mais les|
w: la! * I sing * * of my|sor- row * To for- est and|field * and the|plain * While the|
"^cresc." A G F A6 z z B | B A ^G B6 c2 c | c6 !breath!c3!f! A2 A | !fermata!d3 d2 A (FBd) c2 A | %41
w: mer- les joy- eux Ba-|bil- lent au bord de l'eau|clai- re, Lon lon|lè- re, Je chan- * * te ma|
w: black- birds so gay are|war- bilng a- way In re-|frain * Tra la|la! * I wait * * for the|
{/c} (B3 A3) z2 z D E F | A6- A3!pp![Q:1/4=80]"^rit." G A _B |[Q:1/4=102]"_a tempo" [df]12- | %44
w: pei- ne Et le so-|leil * rit dans les|cieux!|
w: mor- row, And the bright|sun * shin- eth a-|main!|
 [df]6 z6 | !fermata!z12 |] %46
w: ||
w: ||
V:2
 x12 | x12 | x12 | x12 | x12 | x12 | x12 | x12 | x12 | x12 | x12 ||[K:D] x12 | x12 | x12 | x12 | %15
 x12 | x12 | c6- c3 x3 | d3- d2 x7 | x12 | x12 | x12 | x12 ||[K:F] x12 | x12 | x12 | x8 z (D^F)A | %27
 x12 | x12 | x12 | x12 | x12 | x12 ||[K:D] x12 | x12 | x12 | x12 | x12 | x12 | c6- c3 x3 | %40
 d3- d2 x7 | x12 | x12 | x12 | x12 | x12 |] %46
V:3
 z12 |!p! (!>![FA]3 [EG]3 [DF]3) z2 z | ([DFA]3 [EG]3 [CF]3) z2 z |!f! [Fc]3 [FB]3 [=EG]3 [EA]3 | %4
 [DF]3 [DG]3 [^CE]3!pp! !>![A,D-]3 | %5
 [G,B,D]3[I:staff +1] !>![E,A,-]3 !fermata![A,,D,=F,A,]3[I:staff -1] z2 z | %6
 (!>![FA]3 [EG]3 [DF]3) z2 z |!pp! ([DFA]3 [EG]3 [CF]3) z2 z | [Fc]3 [FB]3 [=EG]3 [EA]3 | %9
 [DF]3 [DG]3 [^CE]3!p! !>![A,D-]3 | %10
 [G,B,D]3[I:staff +1] [E,A,-]3 !fermata![A,,D,=F,A,]3[I:staff -1] z2 z || %11
[K:D]!f! [A,DA]6 [DFB]3 [CFA]3 | [B,E^G]3 [CEA]3 z2 z!p! [B,DF]3 | %13
 [A,CF]3 [B,DF]3 [A,CF]3 [G,B,E]3 | (D3 [A,C]3) z2 z [EAe]3 | %15
"_cresc." [DAd]3 [EAe]3 [DAd]3 [FBf]3 | [EBe]3 [FBf]3 [EBe]3!f! [C^G]3 | %17
 [F^A]3 [C^G]3 [FA]3 [C=G=A]3 | !fermata![A,DA]6!p! [DFB]3 [CFA]3 | [B,E^G]3 [CEA]3 z2 z [B,D=G]3 | %20
!<(! [A,CF]3 [B,DG]3 [A,CF]3 [G,A,C]3!<)! |!f! [F,DF]3 [D=F_B]3 [D^FA]3 [D=FB]3 | %22
 [D^FA]6 [D=F_B]6 ||[K:F] (!>![FA]3 [EG]3 [DF]3) z2 z | ([DFA]3 [EG]3 [CF]3) z2 z | %25
!f! [Fc]3 [FB]3 [=EG]3 [EA]3 | [DF]3 [DG]3 [^CE]3!p! !>![A,D-]3 | %27
 [G,B,D]3[I:staff +1] !>![E,A,-]3 !fermata![D,F,A,]3[I:staff -1] z2 z | ([FA]3 [EG]3 [DF]3) z2 z | %29
!pp! ([DFA]3 [EG]3 [CF]3) z2 z | [Fc]3 [FB]3 [=EG]3 [EA]3 | [DF]3 [DG]3 [^CE]3 !>![A,D-]3 | %32
 [G,B,D]3[I:staff +1] !>![E,A,-]3 !fermata![A,,D,=F,A,]3[I:staff -1] z2 z || %33
[K:D]!p! [A,DA]6 [DFB]3 [CFA]3 | [B,E^G]3 [CEA]3 z2 z [B,DF]3 | [A,CF]3 [B,DF]3 [A,CF]3 [G,B,E]3 | %36
 (([F,A,D]3 [E,A,C]3)) z2 z [EAe]3 |"_cresc." [DAd]3 [EAe]3 [DAd]3 [FBf]3 | %38
 [EBe]3 [FBf]3 [EBe]3 [C^G]3 | [F^A]3 [C^G]3 [FA]3 [C=G=A]3 | !fermata![A,DA]6 [DFB]3 [CFA]3 | %41
 [B,E^G]3 [CEA]3 z2 z!mf! [B,D=G]3 | [A,CF]3 [B,DG]3!pp! [A,CF]3"_rit." [CG_B]3 | %43
 !arpeggio![A,DFA]3 [^F_Bd]3 [FAd]3 [FBd]3 | [FAd]6 !arpeggio![D^F_Bd]6 | x12 |] %46
V:4
 z12 | (!>!D3- [G,D]3 [D,A,]3) z2 z | (!>!C3 [C,B,]3 [F,A,]3) z2 z | x12 | %4
[I:staff -1] =B,3 _B,3 A,3[I:staff +1] !>![D,^F,]3 | [G,,D,]3 [A,,^C,]3 !fermata![D,,,D,,]3 z2 z | %6
 (!>!D3- [G,D]3 [D,A,]3) z2 z | (!>!C3 [C,B,]3 [F,A,]3) z2 z | x12 | %9
[I:staff -1] =B,3 _B,3 A,3[I:staff +1] !>![D,^F,]3 | [G,,D,]3 [A,,^C,]3 !fermata![D,,,D,,]3 z2 z || %11
[K:D] !arpeggio![D,,A,,F,]6 B,3 F,3 | [E,,E,]3 [A,,,A,,]3 z6 | [A,,,A,,]12 | %14
 [F,A,]3 E,3 z2 z [G,^C]3 | [F,A,]3 [G,C]3 [F,A,]3 [A,^D]3 | [^G,B,]3 [A,^D]3 [G,B,]3 [C,^E,B,]3 | %17
 [F,,,F,,]3 C,3 F,3 [E,=A,]3 | !arpeggio!!fermata![D,,A,,F,]6 B,3 F,3 | E,3 A,,3 z6 | [A,,,A,,]12 | %21
 [D,,,D,,]6 [D,,,D,,]6- | [D,,,D,,]6 z6 ||[K:F] (!>!D3- [G,D]3 [D,A,]3) z2 z | %24
 (!>!C3 [C,B,]3 [F,A,]3) z2 z | x12 |"^dim."[I:staff -1] =B,3 _B,3 A,3[I:staff +1] !>![D,^F,]3 | %27
 [G,,D,]3 [A,,^C,]3 !fermata![D,,A,,]3 z2 z | (!>!D3- [G,D]3 [D,A,]3) z2 z | %29
 (!>!C3 [C,B,]3 [F,A,]3) z2 z | x12 |[I:staff -1] =B,3 _B,3 A,3[I:staff +1] !>![D,^F,]3 | %32
 [G,,D,]3 [A,,^C,]3 !fermata![D,,,D,,]3 z2 z ||[K:D] !arpeggio![D,,A,,F,]6 B,3 F,3 | E,3 A,,3 z6 | %35
 [A,,,A,,]6 [A,,,A,,]6 | [A,,,A,,]6 z2 z [G,C]3 | [F,A,]3 [G,C]3 [F,A,]3 [A,^D]3 | %38
 [^G,B,]3 [A,^D]3 [G,B,]3 [C,^E,B,]3 | [F,,,F,,]3 C,3 F,3!f! [E,=A,]3 | %40
 !arpeggio!!fermata![D,,A,,F,]6 B,3 F,3 | [E,,E,]3 [A,,,A,,]3 z6 | [A,,,A,,]6- [A,,,A,,]3 E,3 | %43
 [D,,,D,,]6 x2 x4 | [D,A,D]6 !arpeggio![_B,,^F,_B,]6 | %45
!ped! (4:3:4D,,,D,,A,,D,[I:staff -1] (4:3:4F,A,DF d6!ped-up! |] %46
V:5
 x12 | x12 | x12 | _E3 D3 ^C3 =C3 | x12 | x12 | x12 | x12 | _E3 D3 ^C3 =C3 | x12 | x12 || %11
[K:D] x12 | x12 | x12 | x12 | x12 | x12 | x12 | x12 | x12 | x12 | x12 | x12 ||[K:F] x12 | x12 | %25
 _E3 D3 ^C3 =C3 | x12 | x12 | x12 | x12 | _E3 D3 ^C3 =C3 | x12 | x12 ||[K:D] x12 | x12 | x12 | %36
 x12 | x12 | x12 | x12 | x12 | x12 | x12 | x12 | x12 | x12 |] %46
V:6
 x12 | x12 | x12 | x12 | x12 | x12 | x12 | x12 | x12 | x12 | x12 ||[K:D] x12 | x12 | x12 | %14
 [A,,,A,,]6 x6 | x12 | x12 | x12 | x12 | x12 | x12 | x12 | x12 ||[K:F] x12 | x12 | x12 | x12 | %27
 x12 | x12 | x12 | x12 | x12 | x12 ||[K:D] x12 | x12 | x12 | x12 | x12 | x12 | x12 | x12 | x12 | %42
 x12 | z2 z [D,_B,D]3 [D,A,D]3 [D,B,D]3 | x12 | (!>!D,,,6[I:staff -1] f6) |] %46

